app/assets/images/icons/active/bar.svg

<?xml version="1.0" encoding="UTF-8" standalone="no"?>
<svg width="32px" height="232px" viewBox="0 0 32 232" version="1.1" xmlns="http://www.w3.org/2000/svg" xmlns:xlink="http://www.w3.org/1999/xlink" xmlns:sketch="http://www.bohemiancoding.com/sketch/ns">
    <title>bar</title>
    <description>Created with Sketch (http://www.bohemiancoding.com/sketch)</description>
    <defs></defs>
    <g id="Points-of-interest" stroke="none" stroke-width="1" fill="none" fill-rule="evenodd" sketch:type="MSPage">
        <path d="M21.232252,187.387 C20.737252,187.271 19.370252,186.873 18.935252,186.506 C18.458252,186.114 18.088252,184.469 17.980252,183.527 C17.952252,183.291 17.921252,183.188 17.911252,183.118 C17.907252,183.075 17.894252,183.05 17.892252,182.949 C17.882252,182.885 17.880252,182.779 17.892252,182.662 C17.894252,182.568 17.860252,182.475 17.800252,182.412 C17.726252,182.338 17.646252,182.315 17.542252,182.316 L17.189252,182.35 C16.808252,182.391 16.437252,182.441 16.015252,182.422 C15.837252,182.408 15.671252,182.391 15.503252,182.391 L15.274252,182.371 C15.173252,182.316 15.062252,182.322 14.962252,182.387 C14.872252,182.441 14.810252,182.541 14.810252,182.656 C14.810252,182.757 14.778252,183.234 14.745252,183.709 C14.659252,184.668 14.323252,186.329 13.810252,186.705 C13.062252,187.239 11.688252,187.385 11.663252,187.387 C11.015252,187.455 10.479252,188.049 10.479252,188.699 L10.479252,188.781 C10.479252,189.456 11.022252,190 11.709252,190 L21.134252,190 C21.806252,190 22.349252,189.456 22.349252,188.781 L22.349252,188.699 C22.349252,188.076 21.868252,187.527 21.232252,187.387 M22.708252,163 L10.496252,163 C5.53425198,168.16 4.51525198,180.229 16.476252,180.229 C28.425252,180.229 27.035252,169.044 22.708252,163 M10.337252,168.553 C10.661252,167.609 11.123252,166.601 11.739252,165.533 L11.800252,165.337 L21.075252,165.337 L21.144252,165.533 C21.761252,166.601 22.209252,167.609 22.526252,168.553 L10.337252,168.553" id="bar--burgundy" fill="#831D1B" sketch:type="MSShapeGroup"></path>
        <path d="M21.232252,147.387 C20.737252,147.271 19.370252,146.873 18.935252,146.506 C18.458252,146.114 18.088252,144.469 17.980252,143.527 C17.952252,143.291 17.921252,143.188 17.911252,143.118 C17.907252,143.075 17.894252,143.05 17.892252,142.949 C17.882252,142.885 17.880252,142.779 17.892252,142.662 C17.894252,142.568 17.860252,142.475 17.800252,142.412 C17.726252,142.338 17.646252,142.315 17.542252,142.316 L17.189252,142.35 C16.808252,142.391 16.437252,142.441 16.015252,142.422 C15.837252,142.408 15.671252,142.391 15.503252,142.391 L15.274252,142.371 C15.173252,142.316 15.062252,142.322 14.962252,142.387 C14.872252,142.441 14.810252,142.541 14.810252,142.656 C14.810252,142.757 14.778252,143.234 14.745252,143.709 C14.659252,144.668 14.323252,146.329 13.810252,146.705 C13.062252,147.239 11.688252,147.385 11.663252,147.387 C11.015252,147.455 10.479252,148.049 10.479252,148.699 L10.479252,148.781 C10.479252,149.456 11.022252,150 11.709252,150 L21.134252,150 C21.806252,150 22.349252,149.456 22.349252,148.781 L22.349252,148.699 C22.349252,148.076 21.868252,147.527 21.232252,147.387 M22.708252,123 L10.496252,123 C5.53425198,128.16 4.51525198,140.229 16.476252,140.229 C28.425252,140.229 27.035252,129.044 22.708252,123 M10.337252,128.553 C10.661252,127.609 11.123252,126.601 11.739252,125.533 L11.800252,125.337 L21.075252,125.337 L21.144252,125.533 C21.761252,126.601 22.209252,127.609 22.526252,128.553 L10.337252,128.553" id="bar--lp-blue" fill="#206FAC" sketch:type="MSShapeGroup"></path>
        <path d="M21.232252,107.387 C20.737252,107.271 19.370252,106.873 18.935252,106.506 C18.458252,106.114 18.088252,104.469 17.980252,103.527 C17.952252,103.291 17.921252,103.188 17.911252,103.118 C17.907252,103.075 17.894252,103.05 17.892252,102.949 C17.882252,102.885 17.880252,102.779 17.892252,102.662 C17.894252,102.568 17.860252,102.475 17.800252,102.412 C17.726252,102.338 17.646252,102.315 17.542252,102.316 L17.189252,102.35 C16.808252,102.391 16.437252,102.441 16.015252,102.422 C15.837252,102.408 15.671252,102.391 15.503252,102.391 L15.274252,102.371 C15.173252,102.316 15.062252,102.322 14.962252,102.387 C14.872252,102.441 14.810252,102.541 14.810252,102.656 C14.810252,102.757 14.778252,103.234 14.745252,103.709 C14.659252,104.668 14.323252,106.329 13.810252,106.705 C13.062252,107.239 11.688252,107.385 11.663252,107.387 C11.015252,107.455 10.479252,108.049 10.479252,108.699 L10.479252,108.781 C10.479252,109.456 11.022252,110 11.709252,110 L21.134252,110 C21.806252,110 22.349252,109.456 22.349252,108.781 L22.349252,108.699 C22.349252,108.076 21.868252,107.527 21.232252,107.387 M22.708252,83 L10.496252,83 C5.53425198,88.16 4.51525198,100.229 16.476252,100.229 C28.425252,100.229 27.035252,89.044 22.708252,83 M10.337252,88.553 C10.661252,87.609 11.123252,86.601 11.739252,85.533 L11.800252,85.337 L21.075252,85.337 L21.144252,85.533 C21.761252,86.601 22.209252,87.609 22.526252,88.553 L10.337252,88.553" id="bar--white" fill="#FFFFFF" sketch:type="MSShapeGroup"></path>
        <path d="M21.232252,67.387 C20.737252,67.271 19.370252,66.873 18.935252,66.506 C18.458252,66.114 18.088252,64.469 17.980252,63.527 C17.952252,63.291 17.921252,63.188 17.911252,63.118 C17.907252,63.075 17.894252,63.05 17.892252,62.949 C17.882252,62.885 17.880252,62.779 17.892252,62.662 C17.894252,62.568 17.860252,62.475 17.800252,62.412 C17.726252,62.338 17.646252,62.315 17.542252,62.316 L17.189252,62.35 C16.808252,62.391 16.437252,62.441 16.015252,62.422 C15.837252,62.408 15.671252,62.391 15.503252,62.391 L15.274252,62.371 C15.173252,62.316 15.062252,62.322 14.962252,62.387 C14.872252,62.441 14.810252,62.541 14.810252,62.656 C14.810252,62.757 14.778252,63.234 14.745252,63.709 C14.659252,64.668 14.323252,66.329 13.810252,66.705 C13.062252,67.239 11.688252,67.385 11.663252,67.387 C11.015252,67.455 10.479252,68.049 10.479252,68.699 L10.479252,68.781 C10.479252,69.456 11.022252,70 11.709252,70 L21.134252,70 C21.806252,70 22.349252,69.456 22.349252,68.781 L22.349252,68.699 C22.349252,68.076 21.868252,67.527 21.232252,67.387 M22.708252,43 L10.496252,43 C5.53425198,48.16 4.51525198,60.229 16.476252,60.229 C28.425252,60.229 27.035252,49.044 22.708252,43 M10.337252,48.553 C10.661252,47.609 11.123252,46.601 11.739252,45.533 L11.800252,45.337 L21.075252,45.337 L21.144252,45.533 C21.761252,46.601 22.209252,47.609 22.526252,48.553 L10.337252,48.553" id="bar--body-grey" fill="#67747C" sketch:type="MSShapeGroup"></path>
        <path d="M21.232252,27.387 C20.737252,27.271 19.370252,26.873 18.935252,26.506 C18.458252,26.114 18.088252,24.469 17.980252,23.527 C17.952252,23.291 17.921252,23.188 17.911252,23.118 C17.907252,23.075 17.894252,23.05 17.892252,22.949 C17.882252,22.885 17.880252,22.779 17.892252,22.662 C17.894252,22.568 17.860252,22.475 17.800252,22.412 C17.726252,22.338 17.646252,22.315 17.542252,22.316 L17.189252,22.35 C16.808252,22.391 16.437252,22.441 16.015252,22.422 C15.837252,22.408 15.671252,22.391 15.503252,22.391 L15.274252,22.371 C15.173252,22.316 15.062252,22.322 14.962252,22.387 C14.872252,22.441 14.810252,22.541 14.810252,22.656 C14.810252,22.757 14.778252,23.234 14.745252,23.709 C14.659252,24.668 14.323252,26.329 13.810252,26.705 C13.062252,27.239 11.688252,27.385 11.663252,27.387 C11.015252,27.455 10.479252,28.049 10.479252,28.699 L10.479252,28.781 C10.479252,29.456 11.022252,30 11.709252,30 L21.134252,30 C21.806252,30 22.349252,29.456 22.349252,28.781 L22.349252,28.699 C22.349252,28.076 21.868252,27.527 21.232252,27.387 M22.708252,3 L10.496252,3 C5.53425198,8.16 4.51525198,20.229 16.476252,20.229 C28.425252,20.229 27.035252,9.044 22.708252,3 M10.337252,8.553 C10.661252,7.609 11.123252,6.601 11.739252,5.533 L11.800252,5.337 L21.075252,5.337 L21.144252,5.533 C21.761252,6.601 22.209252,7.609 22.526252,8.553 L10.337252,8.553" id="bar--title-grey" fill="#3B444F" sketch:type="MSShapeGroup"></path>
    </g>
</svg>

<svg width="32" height="232" viewBox="0 0 32 232" xmlns="http://www.w3.org/2000/svg" xmlns:sketch="http://www.bohemiancoding.com/sketch/ns"><title>bar</title><g sketch:type="MSPage" fill="none"><path d="M21.232 187.387c-.495-.116-1.862-.514-2.297-.881-.477-.392-.847-2.037-.955-2.979l-.069-.409-.019-.169v-.287c.002-.094-.032-.187-.092-.25-.074-.074-.154-.097-.258-.096l-.353.034c-.381.041-.752.091-1.174.072l-.512-.031-.229-.02c-.101-.055-.212-.049-.312.016-.09.054-.152.154-.152.269 0 .101-.032.578-.065 1.053-.086.959-.422 2.62-.935 2.996-.748.534-2.122.68-2.147.682-.648.068-1.184.662-1.184 1.312v.082c0 .675.543 1.219 1.23 1.219h9.425c.672 0 1.215-.544 1.215-1.219v-.082c0-.623-.481-1.172-1.117-1.312m1.476-24.387h-12.212c-4.962 5.16-5.981 17.229 5.98 17.229 11.949 0 10.559-11.185 6.232-17.229m-12.371 5.553c.324-.944.786-1.952 1.402-3.02l.061-.196h9.275l.069.196c.617 1.068 1.065 2.076 1.382 3.02h-12.189" fill="#831D1B" sketch:type="MSShapeGroup"/><path d="M21.232 147.387c-.495-.116-1.862-.514-2.297-.881-.477-.392-.847-2.037-.955-2.979l-.069-.409-.019-.169v-.287c.002-.094-.032-.187-.092-.25-.074-.074-.154-.097-.258-.096l-.353.034c-.381.041-.752.091-1.174.072l-.512-.031-.229-.02c-.101-.055-.212-.049-.312.016-.09.054-.152.154-.152.269 0 .101-.032.578-.065 1.053-.086.959-.422 2.62-.935 2.996-.748.534-2.122.68-2.147.682-.648.068-1.184.662-1.184 1.312v.082c0 .675.543 1.219 1.23 1.219h9.425c.672 0 1.215-.544 1.215-1.219v-.082c0-.623-.481-1.172-1.117-1.312m1.476-24.387h-12.212c-4.962 5.16-5.981 17.229 5.98 17.229 11.949 0 10.559-11.185 6.232-17.229m-12.371 5.553c.324-.944.786-1.952 1.402-3.02l.061-.196h9.275l.069.196c.617 1.068 1.065 2.076 1.382 3.02h-12.189" fill="#206FAC" sketch:type="MSShapeGroup"/><path d="M21.232 107.387c-.495-.116-1.862-.514-2.297-.881-.477-.392-.847-2.037-.955-2.979l-.069-.409-.019-.169v-.287c.002-.094-.032-.187-.092-.25-.074-.074-.154-.097-.258-.096l-.353.034c-.381.041-.752.091-1.174.072l-.512-.031-.229-.02c-.101-.055-.212-.049-.312.016-.09.054-.152.154-.152.269 0 .101-.032.578-.065 1.053-.086.959-.422 2.62-.935 2.996-.748.534-2.122.68-2.147.682-.648.068-1.184.662-1.184 1.312v.082c0 .675.543 1.219 1.23 1.219h9.425c.672 0 1.215-.544 1.215-1.219v-.082c0-.623-.481-1.172-1.117-1.312m1.476-24.387h-12.212c-4.962 5.16-5.981 17.229 5.98 17.229 11.949 0 10.559-11.185 6.232-17.229m-12.371 5.553c.324-.944.786-1.952 1.402-3.02l.061-.196h9.275l.069.196c.617 1.068 1.065 2.076 1.382 3.02h-12.189" fill="#fff" sketch:type="MSShapeGroup"/><path d="M21.232 67.387c-.495-.116-1.862-.514-2.297-.881-.477-.392-.847-2.037-.955-2.979l-.069-.409-.019-.169v-.287c.002-.094-.032-.187-.092-.25-.074-.074-.154-.097-.258-.096l-.353.034c-.381.041-.752.091-1.174.072l-.512-.031-.229-.02c-.101-.055-.212-.049-.312.016-.09.054-.152.154-.152.269 0 .101-.032.578-.065 1.053-.086.959-.422 2.62-.935 2.996-.748.534-2.122.68-2.147.682-.648.068-1.184.662-1.184 1.312v.082c0 .675.543 1.219 1.23 1.219h9.425c.672 0 1.215-.544 1.215-1.219v-.082c0-.623-.481-1.172-1.117-1.312m1.476-24.387h-12.212c-4.962 5.16-5.981 17.229 5.98 17.229 11.949 0 10.559-11.185 6.232-17.229m-12.371 5.553c.324-.944.786-1.952 1.402-3.02l.061-.196h9.275l.069.196c.617 1.068 1.065 2.076 1.382 3.02h-12.189" fill="#67747C" sketch:type="MSShapeGroup"/><path d="M21.232 27.387c-.495-.116-1.862-.514-2.297-.881-.477-.392-.847-2.037-.955-2.979l-.069-.409-.019-.169v-.287c.002-.094-.032-.187-.092-.25-.074-.074-.154-.097-.258-.096l-.353.034c-.381.041-.752.091-1.174.072l-.512-.031-.229-.02c-.101-.055-.212-.049-.312.016-.09.054-.152.154-.152.269 0 .101-.032.578-.065 1.053-.086.959-.422 2.62-.935 2.996-.748.534-2.122.68-2.147.682-.648.068-1.184.662-1.184 1.312v.082c0 .675.543 1.219 1.23 1.219h9.425c.672 0 1.215-.544 1.215-1.219v-.082c0-.623-.481-1.172-1.117-1.312m1.476-24.387h-12.212c-4.962 5.16-5.981 17.229 5.98 17.229 11.949 0 10.559-11.185 6.232-17.229m-12.371 5.553c.324-.944.786-1.952 1.402-3.02l.061-.196h9.275l.069.196c.617 1.068 1.065 2.076 1.382 3.02h-12.189" fill="#3B444F" sketch:type="MSShapeGroup"/></g></svg>
